frontend/public/svg/interface/fast-rewind.svg

<svg width="106" height="99" viewBox="0 0 106 99" fill="none" xmlns="http://www.w3.org/2000/svg">
<g clip-path="url(#clip0)">
<path d="M104.095 3.30733C103.211 2.55325 101.903 2.49025 100.207 2.62782C97.584 2.79456 95.1077 3.87825 93.2229 5.68398C83.6209 14.723 74.0242 23.7673 64.4336 32.817C63.893 33.3312 63.3903 33.87 62.8118 34.4968C62.787 34.5245 62.7621 34.5514 62.736 34.5784C62.6417 34.1646 62.5732 33.7456 62.5306 33.3236C61.8673 24.8379 61.2086 16.2165 60.5741 7.69031C60.5632 7.40765 60.5749 7.12453 60.6093 6.84367C60.6555 6.47133 60.6663 6.09556 60.6413 5.72125L60.6015 5.24492C60.5799 4.36464 60.4104 3.49394 60.0999 2.66831C59.3786 1.02774 58.3744 0.490287 57.6589 0.32893C56.9246 0.16243 55.746 0.222884 54.2989 1.44946C52.0084 3.39217 50.1784 5.00379 48.5382 6.52288C36.2525 17.9015 22.1415 28.9348 5.39821 40.2613L4.97499 40.5429C4.53789 40.8196 4.11599 41.1189 3.71109 41.4397C0.971956 43.6781 0.195225 46.8531 1.63196 49.933C2.32027 51.3945 3.24809 52.7342 4.37823 53.8982C6.2473 55.8258 8.23261 57.6405 10.3234 59.3323C23.7217 70.1326 37.101 78.5681 51.2258 85.1279L51.5056 85.2564C53.3969 86.1294 55.0274 86.8835 55.5315 88.9361C55.7126 89.4215 56.0775 89.8194 56.5496 90.0457C56.6486 90.1036 56.7437 90.1685 56.8346 90.2386C56.9059 90.2984 56.9891 90.3427 57.079 90.3691C57.1689 90.3954 57.2633 90.4025 57.3562 90.3903C59.406 90.1273 59.5945 88.6321 59.7191 87.6421C60.0891 84.7139 60.4641 81.7856 60.8441 78.8581C61.1263 76.6724 61.4074 74.4847 61.6874 72.2958C61.7526 71.8072 61.7949 71.318 61.8465 70.7285C62.2195 71.1239 62.5286 71.4556 62.8176 71.7963C68.2303 78.2036 74.8237 84.6419 83.5635 92.0591C86.2753 94.2179 89.1801 96.1297 92.2433 97.7709L92.844 98.1168C93.442 98.5076 94.1314 98.7442 94.8474 98.804C95.1468 98.8085 95.4416 98.7314 95.6998 98.5822C96.6357 98.0306 96.6957 96.6536 96.6598 95.6688C96.652 95.033 96.7864 94.403 97.0544 93.8251C99.7864 87.7989 101.474 80.9486 102.37 72.2656C104.425 52.3194 105.085 32.4185 105.459 15.5808C105.524 12.5754 105.466 9.56231 105.283 6.6251C105.175 4.91962 104.82 3.92704 104.095 3.30733ZM95.8974 16.3631C93.7701 41.3156 92.3444 64.649 91.5461 87.5771C90.6044 86.6341 89.6633 85.6936 88.7229 84.755C85.7738 81.8088 82.7229 78.7623 79.7555 75.7486L78.6866 74.6634C75.065 70.9889 71.3203 67.1902 67.7444 63.3611C61.7762 56.973 61.7761 56.973 62.3735 48.371L62.3931 48.0926C62.4023 47.5414 62.5521 47.0013 62.8288 46.5223C63.1055 46.0432 63.5003 45.6405 63.9765 45.3515L65.2156 44.472C67.9427 42.627 70.5416 40.6041 72.9944 38.417C78.307 33.4586 83.6007 28.3112 88.7209 23.333C90.7414 21.3701 92.7631 19.409 94.7868 17.4495C95.1572 17.0879 95.527 16.7257 95.8974 16.3631ZM52.954 15.1127L52.2856 76.124C51.8291 75.7016 51.3877 75.2941 50.9716 74.8691C45.5178 69.3097 39.6134 64.198 33.3172 59.5843C29.7335 56.9557 26.1433 54.2075 22.6717 51.5486C20.7439 50.0734 18.8134 48.6017 16.8804 47.1335C16.3792 46.7704 15.8581 46.4352 15.3192 46.1293L15.2109 46.065C28.8979 37.133 41.5539 26.7541 52.954 15.1127Z" fill="black"/>
</g>
<defs>
<clipPath id="clip0">
<rect width="105" height="99" fill="white" transform="translate(0.777344)"/>
</clipPath>
</defs>
</svg>

<svg xmlns="http://www.w3.org/2000/svg" width="106" height="99" fill="none" viewBox="0 0 106 99"><g clip-path="url(#a)"><path fill="#000" d="M104.095 3.307c-.884-.754-2.192-.817-3.888-.68a11.12 11.12 0 0 0-6.984 3.057 33460 33460 0 0 0-28.79 27.133 36 36 0 0 0-1.697 1.761 10 10 0 0 1-.205-1.254A6928 6928 0 0 1 60.574 7.69q-.016-.424.035-.846.07-.56.032-1.123l-.04-.476a7.9 7.9 0 0 0-.501-2.577c-.721-1.64-1.726-2.178-2.441-2.34-.734-.166-1.913-.105-3.36 1.121-2.29 1.943-4.12 3.555-5.76 5.074C36.251 17.9 22.141 28.935 5.398 40.26l-.424.282q-.656.416-1.264.897C.972 43.678.195 46.853 1.632 49.933a14.7 14.7 0 0 0 2.746 3.965 67 67 0 0 0 5.945 5.434c13.399 10.8 26.778 19.236 40.903 25.796l.28.128c1.89.873 3.521 1.627 4.026 3.68.18.485.546.883 1.018 1.11q.148.087.285.193a.68.68 0 0 0 .521.151c2.05-.263 2.238-1.758 2.363-2.748q.555-4.392 1.125-8.784.423-3.279.843-6.562c.066-.489.108-.978.16-1.568.372.396.682.728.97 1.068 5.413 6.408 12.007 12.846 20.747 20.263a57.7 57.7 0 0 0 8.68 5.712l.6.346a4.3 4.3 0 0 0 2.003.687c.3.004.595-.073.853-.222.936-.551.996-1.928.96-2.913a4.26 4.26 0 0 1 .394-1.844c2.732-6.026 4.42-12.876 5.316-21.56 2.055-19.946 2.715-39.846 3.089-56.684.065-3.006.007-6.019-.176-8.956-.108-1.705-.463-2.698-1.188-3.318m-8.198 13.056c-2.127 24.953-3.553 48.286-4.35 71.214l-2.824-2.822c-2.95-2.946-6-5.993-8.968-9.006l-1.068-1.086c-3.622-3.674-7.367-7.473-10.943-11.302-5.968-6.388-5.968-6.388-5.37-14.99l.02-.278a3.2 3.2 0 0 1 .435-1.57c.276-.48.671-.883 1.148-1.172l1.239-.879a74 74 0 0 0 7.778-6.055c5.313-4.958 10.607-10.106 15.727-15.084q3.03-2.945 6.066-5.883zm-42.943-1.25-.668 61.011a36 36 0 0 1-1.314-1.255 144 144 0 0 0-17.655-15.285c-3.584-2.628-7.174-5.376-10.645-8.035a2027 2027 0 0 0-5.792-4.416 17 17 0 0 0-1.56-1.004l-.11-.064a224.7 224.7 0 0 0 37.744-30.952"/></g><defs><clipPath id="a"><path fill="#fff" d="M.777 0h105v99h-105z"/></clipPath></defs></svg>
